X:621
T:
S:Kadrilj från Gotlands fornsal.
R:kadrilj
O:Gotland
M:2/4
L:1/16
K:Bb
F2|B2F2d2B2|f2F2d2B2|f2gf e2d2|c=Bcd c4|
B2F2d2B2|f2G^F G2e2|d2Bd c2A2|B4 z2:|
|:F2|BF=EF BF=EF|cF=EF dF=EF|e2ce d2Bd|c2c2 c4|
BF=EF BF=EF cF=EF dF=EF|e2cB ABcA|B4 z2:|
|:F2|B2F2d2B2|c6 dc|BAGF =EFGA|BABc d2F2|
B2F2 d2B2|c6 dc|BAGF =EFGA|B4 z2:|
|:f2|afff bfff|=efgf d2f2|afff bfff|=efdf c2d2|
B2F2 d2B2|c6 dc|BAGF =EFGA|B4 z2:|

